app/views/feature_highlight/_service_desk.svg

<svg xmlns="http://www.w3.org/2000/svg" width="214" height="102" viewBox="0 0 214 102" xmlns:xlink="http://www.w3.org/1999/xlink">
  <defs>
    <circle id="a" cx="3.5" cy="3.5" r="3.5"/>
    <circle id="b" cx="3.5" cy="3.5" r="3.5"/>
    <path id="c" d="M5,0 L49,0 C51.7614237,-5.41253928e-15 54,2.23857625 54,5 L54,31 C54,33.7614237 51.7614237,36 49,36 L5,36 C2.23857625,36 3.38176876e-16,33.7614237 0,31 L0,5 C-3.38176876e-16,2.23857625 2.23857625,5.07265313e-16 5,0 Z"/>
  </defs>
  <g fill="none" fill-rule="evenodd" transform="translate(19 28)">
    <path fill="#D6D4DE" d="M4.31127132,21.2070383 C6.11957569,10.3092805 15.5894196,2 27,2 C38.4105804,2 47.8804243,10.3092805 49.6887287,21.2070383 C50.8856179,21.639181 51.779364,22.7053055 51.9645556,24 L53.4965773,24 C53.77461,24 54,24.2319336 54,24.5 C54,24.7761424 53.7670975,25 53.4965773,25 L51.9645556,25 C51.787206,26.2398702 50.9600394,27.2701182 49.8391154,27.7346843 C48.4869619,39.1481791 38.7772077,48 27,48 C15.2227923,48 5.51303808,39.1481791 4.16088462,27.7346843 C3.0399606,27.2701182 2.21279397,26.2398702 2.03544443,25 L0.503422737,25 C0.232902527,25 0,24.7761424 0,24.5 C0,24.2319336 0.225390037,24 0.503422737,24 L2.03544443,24 C2.22063597,22.7053055 3.11438212,21.639181 4.31127132,21.2070383 Z"/>
    <g transform="translate(2)">
      <g transform="translate(45 19)">
        <rect width="7" height="1" x="2" y="3" fill="#F5A623" rx=".5"/>
        <use fill="#FB722E" xlink:href="#a"/>
        <circle cx="3.5" cy="3.5" r="3" stroke="#333333" stroke-opacity=".1"/>
        <path fill="#D3652E" fill-rule="nonzero" d="M3.5,6 C4.88071187,6 6,4.88071187 6,3.5 C6,2.11928813 4.88071187,1 3.5,1 C2.11928813,1 1,2.11928813 1,3.5 C1,4.88071187 2.11928813,6 3.5,6 Z M3.5,7 C1.56700338,7 0,5.43299662 0,3.5 C0,1.56700338 1.56700338,0 3.5,0 C5.43299662,0 7,1.56700338 7,3.5 C7,5.43299662 5.43299662,7 3.5,7 Z"/>
      </g>
      <g transform="matrix(-1 0 0 1 9 19)">
        <rect width="7" height="1" x="2" y="3" fill="#F5A623" rx=".5"/>
        <use fill="#FB722E" xlink:href="#b"/>
        <circle cx="3.5" cy="3.5" r="3" stroke="#333333" stroke-opacity=".1"/>
        <path fill="#D3652E" fill-rule="nonzero" d="M3.5,6 C4.88071187,6 6,4.88071187 6,3.5 C6,2.11928813 4.88071187,1 3.5,1 C2.11928813,1 1,2.11928813 1,3.5 C1,4.88071187 2.11928813,6 3.5,6 Z M3.5,7 C1.56700338,7 0,5.43299662 0,3.5 C0,1.56700338 1.56700338,0 3.5,0 C5.43299662,0 7,1.56700338 7,3.5 C7,5.43299662 5.43299662,7 3.5,7 Z"/>
      </g>
      <path fill="#6B4FBB" d="M27,46 C39.7025492,46 50,35.7025492 50,23 C50,10.2974508 39.7025492,0 27,0 C14.2974508,0 4,10.2974508 4,23 C4,35.7025492 14.2974508,46 27,46 Z"/>
      <path fill="#5B439F" fill-rule="nonzero" d="M27,45 C39.1502645,45 49,35.1502645 49,23 C49,10.8497355 39.1502645,1 27,1 C14.8497355,1 5,10.8497355 5,23 C5,35.1502645 14.8497355,45 27,45 Z M27,46 C14.2974508,46 4,35.7025492 4,23 C4,10.2974508 14.2974508,0 27,0 C39.7025492,0 50,10.2974508 50,23 C50,35.7025492 39.7025492,46 27,46 Z"/>
      <path fill="#B8E986" d="M23,40 C22.4477153,40 22,39.5522847 22,39 C22,38.4477153 22.4477153,38 23,38 C23.5522847,38 24,38.4477153 24,39 C24,39.5522847 23.5522847,40 23,40 Z M27,40 C26.4477153,40 26,39.5522847 26,39 C26,38.4477153 26.4477153,38 27,38 C27.5522847,38 28,38.4477153 28,39 C28,39.5522847 27.5522847,40 27,40 Z M31,40 C30.4477153,40 30,39.5522847 30,39 C30,38.4477153 30.4477153,38 31,38 C31.5522847,38 32,38.4477153 32,39 C32,39.5522847 31.5522847,40 31,40 Z"/>
      <rect width="36" height="22" x="9" y="13" fill="#FDF4F6" stroke="#B4A6DC" rx="11"/>
      <path fill="#B4A6DC" fill-rule="nonzero" d="M9.5,24 C9.5,29.7998875 14.1991391,34.5 19.9967995,34.5 L34.0032005,34.5 C39.7960334,34.5 44.5,29.7966519 44.5,24 C44.5,18.2001125 39.8008609,13.5 34.0032005,13.5 L19.9967995,13.5 C14.2039666,13.5 9.5,18.2033481 9.5,24 Z M8.5,24 C8.5,17.6510339 13.6517113,12.5 19.9967995,12.5 L34.0032005,12.5 C40.353192,12.5 45.5,17.6478741 45.5,24 C45.5,30.3489661 40.3482887,35.5 34.0032005,35.5 L19.9967995,35.5 C13.646808,35.5 8.5,30.3521259 8.5,24 Z"/>
      <path fill="#D4CDCE" fill-rule="nonzero" d="M23.7226187,28.230635 C24.2312686,29.584704 25.5295013,30.5 27,30.5 C28.4963828,30.5 29.8124416,29.5523018 30.3018228,28.1634819 C30.3935967,27.9030358 30.2568608,27.6175051 29.9964148,27.5257312 C29.7359687,27.4339573 29.450438,27.5706932 29.3586641,27.8311392 C29.009188,28.8229209 28.0689352,29.5 27,29.5 C25.9495132,29.5 25.0220443,28.8461045 24.658749,27.8789818 C24.5616427,27.6204766 24.2733625,27.4896369 24.0148573,27.5867433 C23.756352,27.6838496 23.6255123,27.9721298 23.7226187,28.230635 Z"/>
      <path fill="#333333" d="M19.5,24 C18.6715729,24 18,23.3284271 18,22.5 C18,21.6715729 18.6715729,21 19.5,21 C20.3284271,21 21,21.6715729 21,22.5 C21,23.3284271 20.3284271,24 19.5,24 Z M34.5,24 C33.6715729,24 33,23.3284271 33,22.5 C33,21.6715729 33.6715729,21 34.5,21 C35.3284271,21 36,21.6715729 36,22.5 C36,23.3284271 35.3284271,24 34.5,24 Z"/>
      <path fill="#000000" d="M25,6.5 C25,6.22385763 25.2150574,6 25.4904785,6 L28.5095215,6 C28.7804053,6 29,6.23193359 29,6.5 C29,6.77614237 28.7849426,7 28.5095215,7 L25.4904785,7 C25.2195947,7 25,6.76806641 25,6.5 Z M25,8.5 C25,8.22385763 25.2150574,8 25.4904785,8 L28.5095215,8 C28.7804053,8 29,8.23193359 29,8.5 C29,8.77614237 28.7849426,9 28.5095215,9 L25.4904785,9 C25.2195947,9 25,8.76806641 25,8.5 Z" style="mix-blend-mode:multiply" opacity=".2"/>
    </g>
    <path fill="#C3B8E3" d="M86,21 L80,21 C78.8954305,21 78,21.8954305 78,23 C78,24.1045695 78.8954305,25 80,25 L86,25 L86,31 C86,32.1045695 86.8954305,33 88,33 C89.1045695,33 90,32.1045695 90,31 L90,25 L96,25 C97.1045695,25 98,24.1045695 98,23 C98,21.8954305 97.1045695,21 96,21 L90,21 L90,15 C90,13.8954305 89.1045695,13 88,13 C86.8954305,13 86,13.8954305 86,15 L86,21 Z"/>
    <g transform="translate(118 5)">
      <path fill="#D6D4DE" d="M5,2 L49,2 C51.7614237,2 54,4.23857625 54,7 L54,33 C54,35.7614237 51.7614237,38 49,38 L5,38 C2.23857625,38 3.38176876e-16,35.7614237 0,33 L0,7 C-3.38176876e-16,4.23857625 2.23857625,2 5,2 Z"/>
      <g transform="translate(2)">
        <use fill="#FFFFFF" xlink:href="#c"/>
        <path fill="#FC6D26" d="M53.3156578,2.4735118 C52.4474274,0.993627926 50.8397508,-4.51297979e-15 49,-1.55431223e-15 L5,-1.55431223e-15 C3.16024918,-7.49784557e-17 1.55257261,0.993627926 0.684342239,2.4735118 L23.4644661,23.4644661 C25.4170876,25.4170876 28.5829124,25.4170876 30.5355339,23.4644661 L53.3156578,2.4735118 L53.3156578,2.4735118 Z"/>
      </g>
    </g>
  </g>
</svg>

<svg xmlns="http://www.w3.org/2000/svg" width="214" height="102" viewBox="0 0 214 102" xmlns:xlink="http://www.w3.org/1999/xlink"><defs><circle id="a" cx="3.5" cy="3.5" r="3.5"/><circle id="b" cx="3.5" cy="3.5" r="3.5"/><path id="c" d="M5 0h44c2.76 0 5 2.24 5 5v26c0 2.76-2.24 5-5 5H5c-2.76 0-5-2.24-5-5V5c0-2.76 2.24-5 5-5z"/></defs><g fill="none" fill-rule="evenodd"><path fill="#D6D4DE" d="M23.31 49.207C25.12 38.31 34.59 30 46 30c11.41 0 20.88 8.31 22.69 19.207 1.196.432 2.09 1.498 2.275 2.793h1.532c.278 0 .503.232.503.5 0 .276-.233.5-.503.5h-1.532c-.178 1.24-1.005 2.27-2.126 2.735C67.486 67.148 57.776 76 46 76s-21.487-8.852-22.84-20.265c-1.12-.465-1.947-1.495-2.125-2.735h-1.532c-.27 0-.503-.224-.503-.5 0-.268.225-.5.503-.5h1.532c.186-1.295 1.08-2.36 2.276-2.793z"/><g transform="translate(21 28)"><g transform="translate(45 19)"><rect width="7" height="1" x="2" y="3" fill="#F5A623" rx=".5"/><use fill="#FB722E" xlink:href="#a"/><circle cx="3.5" cy="3.5" r="3" stroke="#333" stroke-opacity=".1"/><path fill="#D3652E" fill-rule="nonzero" d="M3.5 6C4.88 6 6 4.88 6 3.5S4.88 1 3.5 1 1 2.12 1 3.5 2.12 6 3.5 6zm0 1C1.567 7 0 5.433 0 3.5S1.567 0 3.5 0 7 1.567 7 3.5 5.433 7 3.5 7z"/></g><g transform="matrix(-1 0 0 1 9 19)"><rect width="7" height="1" x="2" y="3" fill="#F5A623" rx=".5"/><use fill="#FB722E" xlink:href="#b"/><circle cx="3.5" cy="3.5" r="3" stroke="#333" stroke-opacity=".1"/><path fill="#D3652E" fill-rule="nonzero" d="M3.5 6C4.88 6 6 4.88 6 3.5S4.88 1 3.5 1 1 2.12 1 3.5 2.12 6 3.5 6zm0 1C1.567 7 0 5.433 0 3.5S1.567 0 3.5 0 7 1.567 7 3.5 5.433 7 3.5 7z"/></g><path fill="#6B4FBB" d="M27 46c12.703 0 23-10.297 23-23S39.703 0 27 0 4 10.297 4 23s10.297 23 23 23z"/><path fill="#5B439F" fill-rule="nonzero" d="M27 45c12.15 0 22-9.85 22-22S39.15 1 27 1 5 10.85 5 23s9.85 22 22 22zm0 1C14.297 46 4 35.703 4 23S14.297 0 27 0s23 10.297 23 23-10.297 23-23 23z"/><path fill="#B8E986" d="M23 40c-.552 0-1-.448-1-1s.448-1 1-1 1 .448 1 1-.448 1-1 1zm4 0c-.552 0-1-.448-1-1s.448-1 1-1 1 .448 1 1-.448 1-1 1zm4 0c-.552 0-1-.448-1-1s.448-1 1-1 1 .448 1 1-.448 1-1 1z"/><rect width="36" height="22" x="9" y="13" fill="#FDF4F6" stroke="#B4A6DC" rx="11"/><path fill="#B4A6DC" fill-rule="nonzero" d="M9.5 24c0 5.8 4.7 10.5 10.497 10.5h14.006C39.796 34.5 44.5 29.797 44.5 24c0-5.8-4.7-10.5-10.497-10.5H19.997C14.204 13.5 9.5 18.203 9.5 24zm-1 0c0-6.35 5.152-11.5 11.497-11.5h14.006c6.35 0 11.497 5.148 11.497 11.5 0 6.35-5.152 11.5-11.497 11.5H19.997C13.647 35.5 8.5 30.352 8.5 24z"/><path fill="#D4CDCE" fill-rule="nonzero" d="M23.723 28.23C24.23 29.586 25.53 30.5 27 30.5c1.496 0 2.812-.948 3.302-2.337.092-.26-.045-.545-.306-.637-.26-.092-.546.045-.637.305-.35.993-1.29 1.67-2.36 1.67-1.05 0-1.978-.654-2.34-1.62-.098-.26-.387-.39-.645-.293-.26.097-.39.385-.292.644z"/><path fill="#333" d="M19.5 24c-.828 0-1.5-.672-1.5-1.5s.672-1.5 1.5-1.5 1.5.672 1.5 1.5-.672 1.5-1.5 1.5zm15 0c-.828 0-1.5-.672-1.5-1.5s.672-1.5 1.5-1.5 1.5.672 1.5 1.5-.672 1.5-1.5 1.5z"/><path fill="#000" d="M25 6.5c0-.276.215-.5.49-.5h3.02c.27 0 .49.232.49.5 0 .276-.215.5-.49.5h-3.02c-.27 0-.49-.232-.49-.5zm0 2c0-.276.215-.5.49-.5h3.02c.27 0 .49.232.49.5 0 .276-.215.5-.49.5h-3.02c-.27 0-.49-.232-.49-.5z" style="mix-blend-mode:multiply" opacity=".2"/></g><path fill="#C3B8E3" d="M105 49h-6c-1.105 0-2 .895-2 2s.895 2 2 2h6v6c0 1.105.895 2 2 2s2-.895 2-2v-6h6c1.105 0 2-.895 2-2s-.895-2-2-2h-6v-6c0-1.105-.895-2-2-2s-2 .895-2 2v6z"/><path fill="#D6D4DE" d="M142 35h44c2.76 0 5 2.24 5 5v26c0 2.76-2.24 5-5 5h-44c-2.76 0-5-2.24-5-5V40c0-2.76 2.24-5 5-5z"/><g transform="translate(139 33)"><use fill="#FFF" xlink:href="#c"/><path fill="#FC6D26" d="M53.316 2.474C52.446.994 50.84 0 49 0H5C3.16 0 1.553.994.684 2.474l22.78 20.99c1.953 1.953 5.12 1.953 7.072 0l22.78-20.99z"/></g></g></svg>
